X:208
T:One More Day
M:C|
L:1/4
Q:1/4=3D130
K:G
(FG)|\
A>A A>B|AF DF|A2 (B^G)|A3 d|
cB AF|(GD) c2|B2 (cF)|G2 FG|
A2 B2|A>F DF|A2 (B^G)|A3 d|
cB AF|(GD) c2|B2 (cF)|G2 ||
